!!!COM: Monteverdi, Claudio
!!!CDT: 1567/05/15/-1643/11/29/
!!!OTL: Qui pependit in cruce Deus meus
!!!OTL2: Ecco, Silvio, colei che in odio hai tanto
!!!ONM: No. 3
!!!SMS: Musica tolta da i madrigali di Claudio Monteverdi, e d'altri autori, e fatta spirituale
!!!PPR: A. Coppini, ed.
!!!PPP: Milan
!!!PDT: 1607
!!!URL: http://www.jpj.dk/coppini.htm
!!!AIN: contrafacta
**kern	**kern	**kern	**kern	**kern
!basso	!tenore	!alto	!quinto	!canto
*staff5	*staff4	*staff3	*staff2	*staff1
*Ivox	*Ivox	*Ivox	*Ivox	*Ivox
*clefF4	*clefGv2	*clefG2	*clefG2	*clefG2
*k[b-]	*k[b-]	*k[b-]	*k[b-]	*k[b-]
*M4/4	*M4/4	*M4/4	*M4/4	*M4/4
*MM120	*MM120	*MM120	*MM120	*MM120
=1-	=1-	=1-	=1-	=1-
1r	1r	2.g/	1r	1r
.	.	4g/	.	.
=2	=2	=2	=2	=2
2.G\	1r	2g/	2.b-\	2.dd\
.	.	4g/	.	.
4G\	.	4g/	4b-\	4dd\
=3	=3	=3	=3	=3
2G\	1r	[1g	2b-\	2dd\
4G\	.	.	4b-\	4dd\
4G\	.	.	4b-\	4dd\
=4	=4	=4	=4	=4
2.G\	1r	2g/]	2.b-\	2.dd\
.	.	2d/	.	.
4G\	.	.	4g/	4bn\
=5	=5	=5	=5	=5
4F\	1r	4f/	4a/	4cc\
4D\	.	4f/	4b-\	4dd\
2C/	.	2g/	2cc\	2ee\
=6	=6	=6	=6	=6
1BB-	2.d\	1b-	1dd	1ff
.	4d\	.	.	.
=7	=7	=7	=7	=7
1r	2d\	2.a/	2.dd\	2.ff\
.	4d\	.	.	.
.	4d\	4a/	4dd\	4ff\
=8	=8	=8	=8	=8
1r	[1d	2a/	2dd\	2ff\
.	.	4a/	4dd\	4ff\
.	.	4a/	4dd\	4ff\
=9	=9	=9	=9	=9
1r	2d\]	2.a/	2dd\	2.ff\
.	2d\	.	2a/	.
.	.	4f/	.	4dd\
=10	=10	=10	=10	=10
1r	4c\	4g/	4cc\	4ee\
.	4A/	4a/	4cc\	4ff\
.	2G/	2b-\	2dd\	2gg\
=11	=11	=11	=11	=11
1r	1F	1cc	2ff\	1aa
.	.	.	[2aa\	.
=12	=12	=12	=12	=12
1r	2.A/	2.e/	4aa\]	2r
.	.	.	8cc#\	.
.	.	.	8cc#\	.
.	.	.	4cc#\	[2aa\
.	4A/	4e/	4dd\	.
=13	=13	=13	=13	=13
2.A\	2A/	2e/	2ee\	4aa\]
.	.	.	.	8cc#\
.	.	.	.	8cc#\
.	[2e\	2a/	4ee\	4cc#\
4A\	.	.	[4aa\	4dd\
=14	=14	=14	=14	=14
1A	4e\]	4a/	4aa\]	2ee\
.	4e\	4a/	8cc#\	.
.	.	.	8cc#\	.
.	2e\	2a/	4cc#\	[2ee\
.	.	.	4dd\	.
=15	=15	=15	=15	=15
4A\	4e\	4cc\	2ee\	2ee\]
4G\	4g\	4b-\	.	.
2A\	2c#\	2a/	[2ee\	4r
.	.	.	.	4ee\
=16	=16	=16	=16	=16
4.A\	4c#\	4a/	4ee\]	4a/
.	4c#\	4a/	4ee\	4a/
8A\	.	.	.	.
4D\	4d\	4a/	4ff\	4.dd\
4D\	4d\	4a/	4ff\	.
.	.	.	.	8dd\
=17	=17	=17	=17	=17
4G\	4d\	4g/	4dd\	2b-\
4G\	4d\	4g/	4dd\	.
2C/	2c\	2g/	2ee\	[2cc\
=18	=18	=18	=18	=18
2F\	2c\	2a/	2ff\	2cc\]
4r	4r	4r	4r	4r
4B-\	4d\	4f/	4b-\	4dd\
=19	=19	=19	=19	=19
4.B-\	4.d\	4.f/	4.b-\	4.dd\
8B-\	8d\	8f/	8b-\	8dd\
8B-\	8d\	8f/	8b-\	8dd\
8B-\	8d\	8f/	8b-\	8dd\
4E-\	[4B-\	[4b-\	4ee-\	[4gg\
=20	=20	=20	=20	=20
4E\	4B-\]	4b-\]	4g/	4gg\]
4D\	4d\	4f/	2b-\	4b-\
4.F\	4.c\	4.f/	.	4.cc\
.	.	.	4a/	.
8F\	8c\	8f/	.	8cc\
=21	=21	=21	=21	=21
4BB-/	4d\	4f/	4b-\	4b-\
4BB-/	4d\	4f/	4b-\	4b-\
4r	4r	4r	4r	4r
4d\	4f#\	4a/	4dd\	4ff#\
=22	=22	=22	=22	=22
4.d\	4.d\	4.a/	4.dd\	4.ff#\
8d\	8d\	8a/	8dd\	8ff#\
8d\	8d\	8a/	8dd\	8ff#\
8d\	8d\	8a/	8dd\	8ff#\
4G\	4g\	4b-\	[4dd\	[4gg\
=23	=23	=23	=23	=23
2G\	2g\	2b-\	4dd\]	4gg\]
.	.	.	4.dd\	4.gg\
4A\	4e\	4a/	.	.
.	.	.	8dd\	8ff\
4A\	4A/	4a/	4cc#\	4ee\
=24	=24	=24	=24	=24
4D\	4A/	4f#/	4dd\	4dd\
4D\	4A/	4f#/	4dd\	4dd\
4r	4r	4r	4r	4r
4F\	4A/	4fn/	4a/	4cc\
=25	=25	=25	=25	=25
4.F\	4.c\	4.f/	4.a/	4.cc\
8F\	8c\	8f/	8a/	8cc\
8F\	8A/	8f/	8a/	8cc\
8F\	8A/	8f/	8a/	8cc\
[4BB-/	[4B-\	[4d/	[4f/	[4b-\
=26	=26	=26	=26	=26
4BB-/]	4B-\]	4d/]	4f/]	4b-\]
4BB-/	4B-\	4d/	4f/	4b-\
4r	4r	4r	4r	4r
[4C/	[4G/	[4g/	[4cc\	[4ee-\
=27	=27	=27	=27	=27
4C/]	4G/]	4g/]	4cc\]	4ee-\]
8C/	8A/	8c/	8e/	8a/
8C/	8A/	8e/	8e/	8a/
2D\	2A/	2d/	2f#/	2a/
=28	=28	=28	=28	=28
2G\	4Bn\	2d/	2g/	2g/
.	4d\	.	.	.
4r	[2g\	4r	4r	4r
4G\	.	4d/	4bn\	4dd\
=29	=29	=29	=29	=29
2.c\	2g\]	4.c/	2cc\	4.ee\
.	.	8d/	.	8ff\
.	2c\	4e/	4cc\	4gg\
4A\	.	4f/	[4cc\	4cc\
=30	=30	=30	=30	=30
4.G\	4.g\	4.d/	4cc\]	4.dd\
.	.	.	4bn\	.
8G\	8g\	8d/	.	8dd\
2c\	2g\	2e/	2cc\	2cc\
=31	=31	=31	=31	=31
1r	8r	8r	8r	8r
.	8c\	8g/	8cc\	8ee\
.	8c\	8g/	8cc\	8ee\
.	8c\	8a/	8dd\	8ff\
.	2c\	2cc\	4ee\	4gg\
.	.	.	[4ee\	[4gg\
=32	=32	=32	=32	=32
1r	4c\	4cc\	4ee\]	4gg\]
.	8c\	8cc\	8ee\	8gg\
.	8c\	8cc\	8ee\	8gg\
.	2f\	2cc\	4.ff\	2aa\
.	.	.	8ff\	.
=33	=33	=33	=33	=33
1r	4f\	4cc\	4ff\	4aa\
.	4d\	4f/	2ff\	4bb-\
.	2c\	2cc\	.	2gg\
.	.	.	4ee\	.
=34	=34	=34	=34	=34
1r	1f	1cc	1ff	2aa\
.	.	.	.	[2ff\
=35	=35	=35	=35	=35
1B-	1r	1f	1dd	2ff\]
.	.	.	.	[2b-\
=36	=36	=36	=36	=36
2.E-\	2.B-\	2.e-/	2.g/	4b-\]
.	.	.	.	4b-\
.	.	.	.	2b-\
4E-\	4B-\	4e-/	4g/	.
=37	=37	=37	=37	=37
1E-	1G	4.e-/	1g	[1cc
.	.	8d/	.	.
.	.	2c/	.	.
=38	=38	=38	=38	=38
1D	2A/	1d	1f	2cc\]
.	4G/	.	.	2bn\
.	4F/	.	.	.
=39	=39	=39	=39	=39
1C	2c\	2e/	[1g	1cc
.	[2g\	2cc\	.	.
=40	=40	=40	=40	=40
1c	2g\]	1e	1g]	1r
.	[2c\	.	.	.
=41	=41	=41	=41	=41
1E	1c]	1g	1r	1gg
=42	=42	=42	=42	=42
1G	2d\	[1d	1dd	1bn
.	2G/	.	.	.
=43	=43	=43	=43	=43
[1D	2.A/	1d]	2f#/	2dd\
.	.	.	[2g/	2dd\
.	4A/	.	.	.
=44	=44	=44	=44	=44
2D\]	2A\	1d	4g/]	2.a/
.	.	.	4g/	.
2D\	2A\	.	2f#/	.
.	.	.	.	4a/
=45	=45	=45	=45	=45
1G	2Bn\	2d/	1g	1g
.	2r	[2b-\	.	.
=46	=46	=46	=46	=46
1r	1r	4b-\]	2.b-\	2.dd\
.	.	8b-\	.	.
.	.	8b-\	.	.
.	.	2g/	.	.
.	.	.	8b-\	8dd\
.	.	.	8b-\	8dd\
=47	=47	=47	=47	=47
1r	1r	2.g/	2b-\	2dd\
.	.	.	4b-\	4dd\
.	.	4g/	4g/	4bn\
=48	=48	=48	=48	=48
1r	1r	2e/	2g/	2cc\
.	.	4d/	4f#/	[2a/
.	.	8d/	8f#/	.
.	.	8e/	8g/	.
=49	=49	=49	=49	=49
1r	1r	4.f/	4.a/	4a/]
.	.	.	.	8a/
.	.	8f/	8a/	8b-\
.	.	4f/	2a/	4.cc\
.	.	4A/	.	.
.	.	.	.	8cc\
=50	=50	=50	=50	=50
1r	1r	1c	4e/	4.cc\
.	.	.	2f/	.
.	.	.	.	8g/
.	.	.	.	2g/
.	.	.	4e/	.
=51	=51	=51	=51	=51
1r	1r	2f/	2f/	2f/
.	.	2c/	2e/	4r
.	.	.	.	4g/
=52	=52	=52	=52	=52
1r	1r	4c/	4e/	4g/
.	.	4c/	4e/	4g/
.	.	4c/	4e/	4g/
.	.	4A/	4f#/	4a/
=53	=53	=53	=53	=53
1r	1r	4.G/	4.g/	4.b-\
.	.	8G/	8a/	8cc\
.	.	4G/	4b-\	4dd\
.	.	4G/	4g/	4b-\
=54	=54	=54	=54	=54
1r	1r	2d/	2f#/	2a/
.	.	[2G/	4.g/	[2g/
.	.	.	8a/	.
=55	=55	=55	=55	=55
2r	2.g\	2G/]	1b-	2g/]
[2e-\	.	2r	.	2r
.	8g\	.	.	.
.	8g\	.	.	.
=56	=56	=56	=56	=56
4e-\]	1g	2b-\	2.ee-\	2.gg\
8e-\	.	.	.	.
8e-\	.	.	.	.
2c\	.	4cc\	.	.
.	.	4cc\	8ee-\	8gg\
.	.	.	8ee-\	8gg\
=57	=57	=57	=57	=57
2.c\	2.g\	2cc\	2ee-\	2gg\
.	.	4cc\	4ee-\	4gg\
4c\	4g\	4g/	4cc\	4ee\
=58	=58	=58	=58	=58
2A\	2c\	2a/	2cc\	2ff\
4G\	4g\	4d/	4bn\	[2dd\
8G\	8g\	8dd\	8b\	.
8A\	8g\	8cc\	8cc\	.
=59	=59	=59	=59	=59
4.B-\	2f\	4.b-\	4.dd\	4dd\]
.	.	.	.	8dd\
8B-\	.	8b-\	8dd\	8ee\
4B-\	2d\	4f/	2dd\	4.ff\
4D\	.	4f/	.	.
.	.	.	.	8ff\
=60	=60	=60	=60	=60
1F	4c\	1f	4a/	4.ff\
.	4c\	.	2b-\	.
.	.	.	.	8cc\
.	2c\	.	.	2cc\
.	.	.	4a/	.
=61	=61	=61	=61	=61
2B-\	2d\	2f/	2b-\	2b-\
2F\	2c\	2f/	4r	4r
.	.	.	4a/	4cc\
=62	=62	=62	=62	=62
4F\	4c\	4f/	4a/	4cc\
4F\	4c\	4f/	4a/	4cc\
4F\	4c\	4f/	4a/	4cc\
4D\	4f\	4f/	4bn\	4dd\
=63	=63	=63	=63	=63
4.C/	4.e-\	4.g/	4.cc\	4.ee-\
8C/	8d\	8g/	8dd\	8ff\
4C/	4c\	4g/	4ee-\	4gg\
4C/	4c\	4g/	4cc\	4ee-\
=64	=64	=64	=64	=64
2G\	2d\	2g/	2bn\	2dd\
2C/	2e\	2g/	2cc\	2cc\
=65	=65	=65	=65	=65
1r	4r	4r	4r	4r
.	4g\	4g/	4b-\	4g/
.	4g\	4g/	4b-\	4g/
.	4f\	4g/	4a/	4a/
=66	=66	=66	=66	=66
1r	4e\	4g/	4g/	4bn\
.	4e\	4g/	4g/	4cc#\
.	2d\	2f#/	2a/	2dd\
=67	=67	=67	=67	=67
1r	2d\	2f#/	2a/	2dd\
.	4d\	4f#/	4a/	4dd\
.	4d\	4f#/	4a/	4dd\
=68	=68	=68	=68	=68
1r	2d\	2f#/	4a/	2dd\
.	.	.	2dd\	.
.	4A/	4a/	.	4ee\
.	4A/	4a/	4cc#\	4ee\
=69	=69	=69	=69	=69
1r	2d\	2a/	2dd\	2dd\
.	[2d\	[2a/	[2dd\	[2dd\
=70	=70	=70	=70	=70
1r	4d\]	4a/]	4dd\]	4dd\]
.	8f\	8f/	8a/	8dd\
.	8f\	8f/	8a/	8dd\
.	2f\	2a/	2a/	2dd\
=71	=71	=71	=71	=71
1r	4.e\	4.g#/	4.bn\	4.ee\
.	8e\	8g#/	8b\	8ee\
.	4e\	4g#/	4b\	4ee\
.	4e\	4g#/	4b\	4dd\
=72	=72	=72	=72	=72
1r	4A/	4a/	4ee\	4cc\
.	4A/	4a/	4ee\	4cc\
.	2e\	2g#/	2ee\	2bn\
=73	=73	=73	=73	=73
2r	2A/	2a/	2cc#\	2a/
4r	4r	4r	4r	4r
4c\	4e\	4g/	4ee\	4cc\
=74	=74	=74	=74	=74
4c\	4c\	4g/	4ee\	4cc\
4B-\	4c\	4g/	4dd\	4dd\
4A\	4c\	4cc\	4cc\	4ee\
4A\	4c\	4a/	4cc\	4ff#\
=75	=75	=75	=75	=75
2G\	2g\	2bn\	2dd\	2gg\
2G\	2g\	2b\	2dd\	2gg\
=76	=76	=76	=76	=76
4G\	4d\	4bn\	4dd\	4gg\
4G\	4d\	4b\	4dd\	4gg\
2G\	2d\	2b\	4dd\	2gg\
.	.	.	[4gg\	.
=77	=77	=77	=77	=77
4D\	4d\	4dd\	4gg\]	4aa\
4D\	4d\	4a/	4ff#\	4aa\
2G\	2d\	2bn\	2gg\	2gg\
=78	=78	=78	=78	=78
2.G\	2.d\	2.bn\	2.dd\	2.gg\
8Bn\	8d\	8b\	8dd\	8gg\
8B\	8d\	8b\	8dd\	8gg\
=79	=79	=79	=79	=79
2Bn\	2d\	2bn\	2dd\	2gg\
4.A\	4.a\	4.cc#\	4.ee\	4.aa\
8A\	8a\	8cc#\	8ee\	8aa\
=80	=80	=80	=80	=80
4A\	4a\	4cc#\	4ee\	4aa\
4A\	4e\	4cc#\	4ee\	4gg\
4D\	4f\	4dd\	4dd\	4ff\
4D\	4d\	4a/	4dd\	4ff\
=81	=81	=81	=81	=81
1A	1e	1a	2dd\	1ee
.	.	.	2cc#\	.
=82	=82	=82	=82	=82
1D;	1f#;	1a;	1dd;	1dd;
==	==	==	==	==
*-	*-	*-	*-	*-
!!!ENC: Craig Stuart Sapp
!!!END: 2003/12/10/
